X: 160
T: Talisker
R:Strathspey
C:J. Scott Skinner
S:MacDonald - Skye Collection
N:pg.31
M:C
L:1/8
K:A
~A2 A>a e<A c>d|(e>A a>)e f>BB>c|A2 A>a e<A c>e|(d/c/B) e>d c>A A:|
a|b>ga>f e<A c>d|(e>Aa>)A f>BB>a|(b>ga>)f e<A (c>d)|e>Aa>e c>AA>a|
(b/a/g) a>f e<A (c>d)|e>Aa>e f>BB>c|~A2 A>a e<A c>e|d/c/B e>d c>A A||


